outputs/icons/navigation/expand_less_round.svg

<svg xmlns="http://www.w3.org/2000/svg" width="1200" height="1200" fill="none"><g clip-path="url(#a)"><path fill="#000" d="M564.5 435.499 334.999 665c-19.501 19.5-19.501 51 0 70.5 19.499 19.5 50.999 19.5 70.5 0L600 541.5l194 194c19.5 19.5 51 19.5 70.5 0s19.5-51 0-70.5L635 435.499c-19-19.5-51-19.5-70.5 0"/></g><defs><clipPath id="a"><path fill="#fff" d="M0 0h1200v1200H0z"/></clipPath></defs></svg>

<svg width="1200" height="1200" viewBox="0 0 1200 1200" fill="none" xmlns="http://www.w3.org/2000/svg"><g clip-path="url(#clip0_225_2887)"><path d="M564.5 435.499L335 665C315.5 684.5 315.5 716 335 735.5C354.5 755 386 755 405.5 735.5L600 541.5L794 735.5C813.5 755 845 755 864.5 735.5C884 716 884 684.5 864.5 665L635 435.499C616 415.999 584 415.999 564.5 435.499Z" fill="#1D1E23"/></g><defs><clipPath id="clip0_225_2887"><path width="24" fill="white" d="M0 0H1200V1200H0V0z"/></clipPath></defs></svg>
